!!!!SEGMENT: pl-kk--kk-i-6--037-002_palestrina-giovanni-pierluigi-da--missa-inviolata-et-in-terra.krn
!!!cenid: 16xx:1017
!!!COM: Palestrina, Giovanni Pierluigi da
!!!COM-rismid: pe1904
!!!CDT: ~1525-1594/02/02
!!!CNT: Italian
!!!OPR: Missa Inviolata
!!!OTL: Et in terra
!!!OMV: 002
!!!PDT:
!!!AGN: Sacred; Mass
!!!SMS-siglum: PL-Kk
!!!SMS-shelfmark: Kk.I.6
!!!SMS-shelfwork: 037-002 M
!!!SMS-variant:
!!!SMS-altvar:
!!!NIFC-rismid: 1001136448
!!!URL-scan: http://repozytorium.nifc.pl/skany/pl-kk-nut--i-6
!!!ONB-nifc: UWAGA: C (skan 0046-0051, s. 88-99),T (skan 0158-0163, s. 120-131), B (skan 0269-0272, s. 121-126) Części Mszy: 1. Kyrie, 2. Et in terra, 3. Patrem, 4. Sanctus, 5. Agnus Dei
!!!key:
**kern	**text	**kern	**text	**kern	**text
*part3	*part3	*part2	*part2	*part1	*part1
*staff3	*staff3	*staff2	*staff2	*staff1	*staff1
*Iempty	*	*Itenor	*	*Ivox	*
*I"Baſsus.	*	*I"Tenor.	*	*I"Cantus.	*
*I'B	*	*I'T	*	*I'S	*
*clefF4	*	*clefC4	*	*clefC1	*
*k[b-]	*	*k[b-]	*	*k[b-]	*
*F:	*	*F:	*	*F:	*
*M2/1	*	*M2/1	*	*M2/1	*
*met(c|)	*	*met(c|)	*	*met(c|)	*
=1	=1	=1	=1	=1	=1
!LO:TX:b:t=Et in terra.	!	!	!	!	!
00r	.	1rF	.	00r	.
.	.	1.F/	Et	.	.
=2-	=2-	=2-	=2-	=2-	=2-
.	.	2F/	in	.	.
.	.	1F/	ter-	.	.
=3-	=3-	=3-	=3-	=3-	=3-
!	!	!LO:TX:t=P:problem:kreska pseudotaktowa	!	!	!
00r	.	1G/	-ra	0rg	.
.	.	1A\	pax	.	.
=4-	=4-	=4-	=4-	=4-	=4-
.	.	1.B-\	ho-	1.f/	ET
.	.	4A/	.	2f/	in
.	.	4G/	.	.	.
=5-	=5-	=5-	=5-	=5-	=5-
00rG	.	2A/	.	1f/	ter-
!	!	!LO:LB:g=original	!	!	!
.	.	1B-\	.	.	.
!	!	!	!	!LO:TX:t=P:problem:kreska pseudotaktowa	!
.	.	.	.	1g\	-ra
*	*	*2\right	*	*	*
.	.	2c\	.	.	.
=6-	=6-	=6-	=6-	=6-	=6-
.	.	2.A/	-mi-	1a\	pax
.	.	8G/L	.	.	.
.	.	8F/J	.	.	.
.	.	1G/	-ni-	1b-\	ho-
=7-	=7-	=7-	=7-	=7-	=7-
!	!	!LO:TX:t=P:problem:kreska pseudotaktowa	!	!	!
2r	.	1F/	-bus	1a\	-mi-
1F\	Bo-	.	.	.	.
.	.	2r	.	1g\	-ni-
*2\right	*	*	*	*	*
!LO:TX:t=P:problem:kreska pseudotaktowa	!	!	!	!	!
2E\	-nae	1c\	bo-	.	.
=8-	=8-	=8-	=8-	=8-	=8-
!	!	!	!	!LO:TX:t=P:problem:kreska pseudotaktowa	!
2.F\	Vo-	.	.	1a\	-bus
.	.	2A\	-nae	.	.
4E\	.	.	.	.	.
2D/	.	2B-\	vo-	0r	.
2C/	-lun-	2.A/	-lun-	.	.
=9-	=9-	=9-	=9-	=9-	=9-
1BB-/	-ta-	.	.	.	.
.	.	8G/L	.	.	.
.	.	8F/J	.	.	.
!	!	!LO:TX:t=P:problem:kreska pseudotaktowa	!	!	!
.	.	2G/	.	.	.
!LO:TX:t=P:problem:kreska pseudotaktowa	!	!	!	!	!
1AA/	-tis	2.A/	-ta-	2r	.
.	.	.	.	1a\	bo-
.	.	4G/	.	.	.
=10-	=10-	=10-	=10-	=10-	=10-
0rD	.	4F/	.	.	.
.	.	4E/	.	.	.
!	!	!	!	!LO:TX:t=P:problem:kreska pseudotaktowa	!
.	.	2D/	.	2f/	-nae
.	.	2E-X/	.	2g/	vo-
.	.	2F/	.	2.f/	-lun-
=11-	=11-	=11-	=11-	=11-	=11-
!	!	!LO:TX:t=P:problem:kreska pseudotaktowa	!	!	!
1rD	.	1C/	-tis.	.	.
.	.	.	.	8e/L	.
.	.	.	.	8d/J	.
!	!	!	!	!LO:SIC:v:t=custos f	!
.	.	.	.	2e/	.
!	!	!	!	!LO:LB:g=original	!
2r	.	2rF	.	1f/	-ta-
2F\	Lau-	2A/	Lau-	.	.
=12-	=12-	=12-	=12-	=12-	=12-
!	!	!	!	!LO:TX:t=P:problem:kreska pseudotaktowa	!
2F\	-da-	2A/	-da-	1c/	-tis
2E\	-muſ	2G/	-m(us)	.	.
!LO:TX:t=P:problem:kreska pseudotaktowa	!	!	!	!	!
1F\	te	2.A/	Te	2re	.
.	.	.	.	1a\	Be-
!	!	!LO:TX:t=P:problem:4\left or middle:global	!	!	!
.	.	4B-\	.	.	.
=13-	=13-	=13-	=13-	=13-	=13-
*	*	*lig	*	*	*
!	!	!LO:LB:g=original	!	!	!
00r	.	1c\	.	.	.
.	.	.	.	2g/	-ne-
*	*	*	*	*2\right	*
!	!	!LO:TX:t=P:problem:kreska pseudotaktowa	!	!LO:TX:t=P:problem:2\right:global	!
.	.	1F/	.	2.a\	-di-
.	.	.	.	4g/	.
*	*	*Xlig	*	*	*
=14-	=14-	=14-	=14-	=14-	=14-
.	.	1r	.	2f/	.
.	.	.	.	2.g/	.
.	.	2r	.	.	.
.	.	.	.	4f/	.
.	.	1c\	be-	2e/	-ci-
=15-	=15-	=15-	=15-	=15-	=15-
1r	.	.	.	1d/	-mus
.	.	2B-\	-ne-	.	.
!	!	!	!	!LO:TX:t=P:problem:kreska pseudotaktowa	!
2r	.	2.c\	-di-	1c/	te
1F\	Be-	.	.	.	.
.	.	4B-\	.	.	.
=16-	=16-	=16-	=16-	=16-	=16-
.	.	2A/	-ci-	0rg	.
!	!	!LO:TX:t=P:problem:kreska pseudotaktowa	!	!	!
2E\	-ne-	2G/	-mus	.	.
2.F\	-di-	2A/	Te	.	.
.	.	4F/	.	.	.
4E\	.	4G/	.	.	.
=17-	=17-	=17-	=17-	=17-	=17-
2D/	.	4A/	.	1rg	.
.	.	4B-\	.	.	.
!LO:SIC:v:t=custos D	!	!	!	!	!
2C/	-ci-	2c\	.	.	.
!LO:LB:g=original	!	!	!	!	!
1D\	-muſ	2B-\	.	2r	.
.	.	2A/	.	1a\	A-
=18-	=18-	=18-	=18-	=18-	=18-
1C/	te	1c\	.	.	.
!	!	!	!	!LO:TX:t=P:problem:kreska pseudotaktowa	!
.	.	.	.	2g/	-do-
!	!	!LO:TX:t=P:problem:kreska pseudotaktowa	!	!	!
00r	.	1F/	.	2.a\	-ra-
.	.	.	.	4g/	.
=19-	=19-	=19-	=19-	=19-	=19-
.	.	1r	.	2f/	.
.	.	.	.	2.g/	.
.	.	2r	.	.	.
.	.	.	.	4f/	.
!	!	!	!	!LO:SIC:v:t=custos d	!
.	.	1c\	A-	2e/	.
=20-	=20-	=20-	=20-	=20-	=20-
!	!	!	!	!LO:LB:g=original	!
.	.	.	.	1d/	-mus
.	.	2B-\	-do-	.	.
!	!	!	!	!LO:TX:t=P:problem:kreska pseudotaktowa	!
2r	.	2.c\	-ra-	1c/	te
1F\	A-	.	.	.	.
.	.	4B-\	.	.	.
=21-	=21-	=21-	=21-	=21-	=21-
.	.	2A/	.	0rg	.
!	!	!LO:SIC:v:t=custos A	!	!	!
2E\	-do-	2G/	.	.	.
!	!	!LO:LB:g=original	!	!	!
2.F\	-ra-	2.A/	.	.	.
4E\	.	4G/	.	.	.
=22-	=22-	=22-	=22-	=22-	=22-
2D/	.	4A\	.	2r	.
.	.	4B-\	.	.	.
2C/	-mus	2c\	-mus	2cc\	glo-
!LO:TX:t=P:problem:rozdzielacz słów:global	!	!LO:TX:t=P:problem:kreska pseudotaktowa	!	!	!
1D\,<	te	1F/	Te	2cc\	-ri-
!	!	!	!	!LO:TX:t=P:problem:kreska pseudotaktowa	!
.	.	.	.	2b-\	-fi-
=23-	=23-	=23-	=23-	=23-	=23-
1C/	glo-	2r	.	2.cc\	-ca-
.	.	2c\	glo-	.	.
.	.	.	.	4b-\	.
2F\	-ri-	2c\	-ri-	2a\	.
2G\	-fi-	2B-\	-fi-	2g/	.
=24-	=24-	=24-	=24-	=24-	=24-
1.F\	-ca-	2.c\	-ca-	2.a\	.
.	.	4B-\	.	4g/	.
.	.	2A/	.	2f/	.
!	!	!LO:TX:t=P:problem:kreska pseudotaktowa	!	!	!
2E\	.	2G/	.	2.g/	.
=25-	=25-	=25-	=25-	=25-	=25-
*lig	*	*	*	*	*
1D\	-mus	2A/	.	.	.
.	.	.	.	4f/	.
.	.	4G/	.	1f/	.
.	.	4F/	.	.	.
1C/	.	1G/	-mus	.	.
.	.	.	.	2e/	-mus
*Xlig	*	*	*	*	*
=26-	=26-	=26-	=26-	=26-	=26-
!	!	!LO:TX:t=P:problem:kreska pseudotaktowa	!	!LO:TX:t=P:problem:kreska pseudotaktowa	!
2FF/	te	0.F/	Te.	0f/	te
2.F\	glo-	.	.	.	.
4E\	.	.	.	.	.
4D/	ri-	.	.	.	.
4C/	.	.	.	.	.
=27-	=27-	=27-	=27-	=27-	=27-
!	!	!	!	!LO:LB:g=original	!
1D\	-fi-	.	.	2r	.
.	.	.	.	1a\	Gra-
2.AA/	-ca-	00r	.	.	.
!	!	!	!	!LO:SIC:v:t=custos g	!
.	.	.	.	2a\	-ti-
4BB-/	-mus	.	.	.	.
=28-	=28-	=28-	=28-	=28-	=28-
!LO:SIC:v:t=custos A	!	!	!	!LO:TX:t=P:problem:rozdzielacz słów:global	!
!	!	!	!	!LO:LB:g=original	!
1C/	te	.	.	2g,</	-as
.	.	.	.	1cc\	a-
!LO:LB:g=original	!	!	!	!	!
00r	.	.	.	.	.
.	.	.	.	2b-\	-gi-
=29-	=29-	=29-	=29-	=29-	=29-
.	.	.	.	2a\	-mus
.	.	.	.	1b-\	ti-
.	.	1.d\	pro-	.	.
.	.	.	.	4a\	.
.	.	.	.	4g/	.
=30-	=30-	=30-	=30-	=30-	=30-
.	.	.	.	2f/	.
.	.	2d\	-pter	2g/	.
!	!	!	!	!LO:TX:t=P:problem:kreska pseudotaktowa	!
2r	.	1c\	ma-	0a\	-bi
1A\	pro-	.	.	.	.
=31-	=31-	=31-	=31-	=31-	=31-
.	.	2A/	-gnam	.	.
!LO:TX:t=P:problem:kreska pseudotaktowa	!	!	!	!	!
2A\	-pter	1c\	glo-	.	.
1G\	ma-	.	.	1r	.
.	.	2B-\	.	.	.
=32-	=32-	=32-	=32-	=32-	=32-
2E\	.	2G/	.	2r	.
!	!	!LO:LB:g=original	!	!	!
1F\	.	4A/	.	2a\	pro-
!	!	!LO:TX:t=P:problem:kreska pseudotaktowa	!	!	!
.	.	4G/	.	.	.
.	.	4A/	.	2a\	-pter
.	.	4B-\	.	.	.
!LO:TX:t=P:problem:kreska pseudotaktowa	!	!	!	!	!
2E\	-gnam	2.c\	.	2g/	ma-
=33-	=33-	=33-	=33-	=33-	=33-
2C/	glo-	.	.	2e/	-gnam
.	.	4B-\	-ri-	.	.
2.D/	-ri-	4A/	-am	2.f/	glo-
.	.	4G/	.	.	.
.	.	4F/	.	.	.
4C/	.	4G/	.	4e/	-ri-
!LO:TX:t=P:problem:kreska pseudotaktowa	!	!	!	!	!
2AA/	-am	1A\	.	2c/	-am
=34-	=34-	=34-	=34-	=34-	=34-
1BB-/	tu-	.	.	1d/	tu-
.	.	2G/	Tu-	.	.
!	!	!LO:TX:t=P:problem:kreska pseudotaktowa	!	!LO:TX:t=P:problem:kreska pseudotaktowa	!
2FF,</	-am	0A\	-am	1c/	-am
2.F\	Do-	.	.	.	.
=35-	=35-	=35-	=35-	=35-	=35-
!	!	!	!	!LO:SIC:v:t=custos cc	!
.	.	.	.	2re	.
4F\	-mi-	.	.	.	.
!LO:TX:t=P:problem:kreska pseudotaktowa	!	!	!	!LO:LB:g=original	!
2F\	-ne	.	.	2.cc\	Do-
1A\	De-	00r	.	.	.
.	.	.	.	4cc\	-mi-
!	!	!	!	!LO:TX:t=P:problem:kreska pseudotaktowa	!
.	.	.	.	2cc\	-ne
=36-	=36-	=36-	=36-	=36-	=36-
1G\	.	.	.	2b-\	De-
.	.	.	.	2g/	-us
!LO:TX:t=P:problem:kreska pseudotaktowa	!	!	!	!	!
1F\	-us	.	.	2.a\	Rex
.	.	.	.	4g/	.
=37-	=37-	=37-	=37-	=37-	=37-
0r	.	.	.	2f/	.
.	.	.	.	2e/	coe-
!	!	!LO:TX:t=P:problem:kreska pseudotaktowa	!	!	!
.	.	1r	.	1d/	-le-
=38-	=38-	=38-	=38-	=38-	=38-
!	!	!	!	!LO:TX:t=P:problem:kreska pseudotaktowa	!
2r	.	2r	.	0c/	-stis
1F\	De-	1A\	De-	.	.
2F\	-us	2A/	-us	.	.
=39-	=39-	=39-	=39-	=39-	=39-
1F\	Pa-	1A\	Pa-	00r	.
!LO:SIC:v:t=custos C	!	!	!	!	!
2E\	-ter	2G/	-ter	.	.
!LO:TX:t=P:problem:kreska pseudotaktowa	!	!LO:TX:t=P:problem:kreska pseudotaktowa	!	!	!
!LO:LB:g=original	!	!	!	!	!
2C/	o-	2Eny/	o-	.	.
=40-	=40-	=40-	=40-	=40-	=40-
!	!	!	!	!LO:TX:t=P:problem:pauza wielotaktowa wydłużona ołówkiem	!
2.D/	-mni-	2.F/	-mni-	.	.
4C/	.	4E/	.	.	.
2BB-/	.	2D/	.	.	.
!LO:TX:t=P:problem:kreska pseudotaktowa	!	!	!	!	!
2AA/	.	2C/	.	.	.
=41-	=41-	=41-	=41-	=41-	=41-
*	*	*lig	*	*	*
2GG/	.	1G/	.	1b-\	Do-
2GG/	-po-	.	.	.	.
!LO:TX:t=P:problem:kreska pseudotaktowa	!	!	!	!	!
*	*	*col	*	*	*
1FF/	-tens	2.A\	.	2a\	-mi-
.	.	.	.	2a\	-ne
*	*	*Xlig	*	*	*
.	.	4B-\	.	.	.
*	*	*Xcol	*	*	*
=42-	=42-	=42-	=42-	=42-	=42-
2rBB	.	1c\	-po-	1g\	Fi-
2C/	Do-	.	.	.	.
!	!	!LO:TX:t=P:problem:kreska pseudotaktowa	!	!	!
4D\	.	1F/	-tens	2f/	-li
4E\	.	.	.	.	.
4F\	.	.	.	1a\	U-
!LO:TX:t=P:problem:kreska pseudotaktowa	!	!	!	!	!
4G\	.	.	.	.	.
=43-	=43-	=43-	=43-	=43-	=43-
!	!	!LO:TX:t=P:problem:kreska pseudotaktowa	!	!	!
!	!	!LO:LB:g=original	!	!	!
2A\	-mi-	0r	.	.	.
!	!	!	!	!LO:TX:t=P:problem:kreska pseudotaktowa	!
2B-\	-ne	.	.	2g/	-ni-
1A\	Fi-	.	.	2f/	-ge-
!	!	!	!	!LO:SIC:v:t=custos d	!
.	.	.	.	2e/	-ni-
=44-	=44-	=44-	=44-	=44-	=44-
!LO:TX:t=P:problem:kreska pseudotaktowa	!	!LO:TX:t=P:problem:kreska pseudotaktowa	!	!LO:LB:g=original	!
1D\	-li	1r	.	0d/	-te
1r	.	1B-\	Do-	.	.
=45-	=45-	=45-	=45-	=45-	=45-
1F\	Do-	2A/	-mi-	00r	.
.	.	2A/	-ne	.	.
2E\	-mi-	1G/	Fi-	.	.
!LO:TX:t=P:problem:kreska pseudotaktowa	!	!	!	!	!
2E\	-ne	.	.	.	.
=46-	=46-	=46-	=46-	=46-	=46-
1D\	Fi-	2F/	-li	.	.
.	.	2.A/	u-	.	.
2C/	-li	.	.	.	.
.	.	4G/	-ni-	.	.
1D\	U-	1F/	-ge-	.	.
=47-	=47-	=47-	=47-	=47-	=47-
!	!	!	!	!LO:TX:t=P:problem:kreska pseudotaktowa	!
.	.	.	.	1rg	.
!LO:SIC:v:t=custos B-	!	!LO:TX:t=P:problem:kreska pseudotaktowa	!	!	!
2C/	-ni-	2E/	.	.	.
!LO:LB:g=original	!	!	!	!	!
2BB-/	-ge-	2D/	.	0f/	Je-
2BB-/	-ni-	2D/	ni-	.	.
=48-	=48-	=48-	=48-	=48-	=48-
!LO:TX:t=P:problem:kreska pseudotaktowa	!	!LO:TX:t=P:problem:kreska pseudotaktowa	!	!	!
0AA/,<	-te	1A\	-te	.	.
.	.	0A\	Je-	1e/	-su
=49-	=49-	=49-	=49-	=49-	=49-
0F\	Je-	.	.	0a\	CHri-
!	!	!LO:TX:t=P:problem:kreska pseudotaktowa	!	!	!
.	.	0c\	-su	.	.
=50-	=50-	=50-	=50-	=50-	=50-
!LO:TX:t=P:problem:kreska pseudotaktowa	!	!	!	!LO:TX:t=P:problem:kreska pseudotaktowa	!
0C/	-su	.	.	00g\	-ſte
.	.	1.c\	Je-	.	.
=51-	=51-	=51-	=51-	=51-	=51-
1G\	Chri-	.	.	.	.
!	!	!LO:TX:t=P:problem:♯ above	!	!	!
!	!	!LO:N:acc=#	!	!	!
.	.	4Bn\	.	.	.
.	.	4A\	.	.	.
2.G\	.	1B\	-su	.	.
4F\	.	.	.	.	.
=52-	=52-	=52-	=52-	=52-	=52-
2E\	.	2.c\	Chri-	2r	.
2F\	.	.	.	1f/	Do-
!	!	!LO:TX:t=P:problem:kreska pseudotaktowa	!	!	!
.	.	4B-y\	.	.	.
!LO:TX:t=P:problem:kreska pseudotaktowa	!	!	!	!	!
1C/	-ſte	2A/	.	.	.
.	.	2G/	.	2e/	-mi-
=53-	=53-	=53-	=53-	=53-	=53-
00r	.	1A\	.	4c/	-ne
.	.	.	.	4d/	.
.	.	.	.	4e/	.
!	!	!	!	!LO:TX:t=P:problem:kreska pseudotaktowa	!
.	.	.	.	4f/	.
!	!	!LO:TX:t=P:problem:kreska pseudotaktowa	!	!	!
.	.	1G/	-ste	4g/	.
.	.	.	.	4f/	.
.	.	.	.	4g/	.
.	.	.	.	4a\	.
=54-	=54-	=54-	=54-	=54-	=54-
!	!	!LO:PB:g=original	!	!	!
.	.	2r	.	1.b-\	.
.	.	1G/	Do-	.	.
.	.	2F/	-mi-	4a\	.
!	!	!	!	!LO:TX:t=P:problem:kreska pseudotaktowa	!
.	.	.	.	4g/	.
=55-	=55-	=55-	=55-	=55-	=55-
!	!	!	!	!LO:LB:g=original	!
00r	.	4D/	-ne	1.a\	De-
.	.	4E/	.	.	.
.	.	4F/	.	.	.
.	.	4G/	.	.	.
.	.	4A/	.	.	.
.	.	4B-\	.	.	.
.	.	2c\	.	2g/	.
=56-	=56-	=56-	=56-	=56-	=56-
.	.	2F/	.	4f/	.
.	.	.	.	4e/	.
.	.	2A/	.	4d/	.
!	!	!	!	!LO:SIC:v:t=custos d	!
.	.	.	.	4c/	.
*	*	*lig	*	*	*
.	.	1G/	De-	2.d/	.
.	.	.	.	4e/	.
=57-	=57-	=57-	=57-	=57-	=57-
2r	.	1F/	.	4f/	.
.	.	.	.	4g/	.
1F\	A-	.	.	1a\	.
*	*	*Xlig	*	*	*
!	!	!LO:TX:t=P:problem:kreska pseudotaktowa	!	!	!
.	.	1C/	-us	.	.
!LO:TX:t=P:problem:kreska pseudotaktowa	!	!	!	!	!
2E\	-gnus	.	.	4g/	.
.	.	.	.	4f/	.
=58-	=58-	=58-	=58-	=58-	=58-
4C/	De-	00rA	.	1e/	.
4D/	.	.	.	.	.
4E\	.	.	.	.	.
!LO:TX:t=P:problem:kreska pseudotaktowa	!	!	!	!	!
4F\	.	.	.	.	.
2.G\	.	.	.	2d,</	-us
.	.	.	.	1g\	A-
4F\	.	.	.	.	.
=59-	=59-	=59-	=59-	=59-	=59-
4G\	.	.	.	.	.
4A\	.	.	.	.	.
!LO:SIC:v:t=custos A	!	!	!	!LO:TX:t=P:problem:kreska pseudotaktowa	!
1B-\	.	.	.	2f/	-gnus
!	!	!	!	!LO:LB:g=original	!
.	.	.	.	4d/	De-
.	.	.	.	4e/	.
!LO:PB:g=original	!	!	!	!	!
4A\	.	.	.	4f/	.
4G\	.	.	.	4g/	.
=60-	=60-	=60-	=60-	=60-	=60-
!	!	!LO:TX:t=P:problem:kreska pseudotaktowa	!	!	!
2F\	.	0rA	.	4a\	.
.	.	.	.	4b-\	.
2A\	.	.	.	1cc\	.
1G\	.	.	.	.	.
.	.	.	.	2b-\	.
=61-	=61-	=61-	=61-	=61-	=61-
1F\	.	2r	.	1a\	.
.	.	1c\	Fi-	.	.
!LO:TX:t=P:problem:kreska pseudotaktowa	!	!	!	!LO:TX:t=P:problem:kreska pseudotaktowa	!
1G\	-i	.	.	0g\	-i
.	.	2B-\	-li-	.	.
=62-	=62-	=62-	=62-	=62-	=62-
2r	.	4G/	-us	.	.
.	.	4A/	.	.	.
1G\	Fi-	4B-\	.	.	.
!	!	!LO:TX:t=P:problem:kreska pseudotaktowa	!	!	!
.	.	4c\	.	.	.
.	.	4d\	.	0r	.
.	.	4c\	.	.	.
!LO:TX:t=P:problem:kreska pseudotaktowa	!	!	!	!	!
2F\	-li-	4d\	.	.	.
.	.	4e\	.	.	.
=63-	=63-	=63-	=63-	=63-	=63-
2D/	-us	2.f\	.	.	.
1F\	Pa-	.	.	.	.
.	.	4e\	.	.	.
.	.	2d\	.	1r	.
!	!	!LO:LB:g=original	!	!	!
2E\	.	1c\	pa-	.	.
=64-	=64-	=64-	=64-	=64-	=64-
1D\	.	.	.	2r	.
.	.	2B-\	.	1f/	Fi-
!LO:TX:t=P:problem:kreska pseudotaktowa	!	!LO:TX:t=P:problem:kreska pseudotaktowa	!	!	!
1C/	-tris	0c\	-tris	.	.
!	!	!	!	!LO:SIC:v:t=custos c	!
.	.	.	.	2e/	-li-
=65-	=65-	=65-	=65-	=65-	=65-
!	!	!	!	!LO:PB:g=original	!
2rBB	.	.	.	4c/	-us
.	.	.	.	4d/	.
1C/	Fi-	.	.	4e/	.
!	!	!	!	!LO:TX:t=P:problem:kreska pseudotaktowa	!
.	.	.	.	4f/	.
.	.	1r	.	4g/	.
.	.	.	.	4f/	.
!LO:TX:t=P:problem:kreska pseudotaktowa	!	!	!	!	!
2BB-/	-li-	.	.	4g/	.
.	.	.	.	4a\	.
=66-	=66-	=66-	=66-	=66-	=66-
4GG/	-us	2r	.	2.b-\	.
4AA/	.	.	.	.	.
4BB-/	.	1B-\	Fi-	.	.
4C/	.	.	.	4a\	.
4D\	.	.	.	4f/	.
4E\	.	.	.	4g/	.
2.F\	Pa-	2A/	-li-	2.a\	.
=67-	=67-	=67-	=67-	=67-	=67-
.	.	4F/	-us	.	.
!LO:SIC:v:t=custos D	!	!	!	!	!
4E\	.	4G/	.	4g/	.
!LO:TX:t=P:problem:kreska pseudotaktowa	!	!	!	!LO:TX:t=P:problem:kreska pseudotaktowa	!
!LO:LB:g=original	!	!	!	!	!
2D/	.	4A/	.	2f/	.
.	.	4B-\	.	.	.
2C/	.	2c\	.	2e/	.
2GG/	.	2.B-\	Pa-	2.g/	Pa-
=68-	=68-	=68-	=68-	=68-	=68-
*lig	*	*	*	*	*
1D\	.	.	.	.	.
.	.	4A/	.	4f/	.
.	.	2F/	.	1f/	.
1C/	.	1G/	.	.	.
.	.	.	.	2e/	.
*Xlig	*	*	*	*	*
=69-	=69-	=69-	=69-	=69-	=69-
!	!	!	!	!LO:TX:t=P:problem:fermata below	!
0FF/;	-tris.	0F/;<	-tris	0f/;<	-tris.
=70||	=70||	=70||	=70||	=70||	=70||
*M2/1	*	*M2/1	*	*M2/1	*
*met(c|)	*	*met(c|)	*	*met(c|)	*
!	!	!LO:TX:b:t=Qui tollis	!	!LO:LB:g=original	!
00rG	.	00r	.	1r	.
.	.	.	.	0a\	Qui
=71-	=71-	=71-	=71-	=71-	=71-
.	.	.	.	1g\	tol-
=72-	=72-	=72-	=72-	=72-	=72-
00rG	.	0r	.	2.f/	.
.	.	.	.	4g/	.
.	.	.	.	4a\	.
.	.	.	.	4b-\	.
.	.	.	.	1cc\	-lis
=73-	=73-	=73-	=73-	=73-	=73-
!	!	!LO:TX:t=P:problem:kreska pseudotaktowa	!	!	!
.	.	1r	.	.	.
!	!	!	!	!LO:TX:t=P:problem:kreska pseudotaktowa	!
.	.	.	.	2b-\	pec-
.	.	0A\	Mi-	1cc\	-ca-
=74-	=74-	=74-	=74-	=74-	=74-
00r	.	.	.	1a\	-ta
!	!	!LO:SIC:v:t=custos F	!	!	!
.	.	1G/	-ſe-	1b-\	mun-
=75-	=75-	=75-	=75-	=75-	=75-
!	!	!LO:LB:g=original	!	!	!
.	.	2.F/	-re-	2a\	-di
.	.	.	.	1a\	mi-
.	.	4G/	.	.	.
.	.	4A/	.	.	.
.	.	4B-\	.	.	.
!	!	!	!	!LO:TX:t=P:problem:kreska pseudotaktowa	!
.	.	1c\	.	2g/	-ſe-
=76-	=76-	=76-	=76-	=76-	=76-
!LO:TX:t=P:problem:kreska pseudotaktowa	!	!	!	!	!
00r	.	.	.	1.g\	-re-
!	!	!LO:TX:t=P:problem:kreska pseudotaktowa	!	!	!
.	.	2B-\	.	.	.
.	.	2c\	.	.	.
.	.	2A/	-re	2a\	-re
=77-	=77-	=77-	=77-	=77-	=77-
*	*	*	*	*lig	*
.	.	1B-\	no-	1d/	no-
.	.	1A\	-bis	1e/	.
*	*	*	*	*Xlig	*
=78-	=78-	=78-	=78-	=78-	=78-
!	!	!	!	!LO:SIC:v:t=custos f	!
0D\	QVi	1r	.	2d,</	-bis.
!	!	!	!	!LO:LB:g=original	!
.	.	.	.	1f/	mi-
.	.	0A\	qui	.	.
.	.	.	.	4e/	.
!	!	!	!	!LO:TX:t=P:problem:kreska pseudotaktowa	!
.	.	.	.	4d/	.
=79-	=79-	=79-	=79-	=79-	=79-
1C/	tol-	.	.	2e/	-ſe-
.	.	.	.	2c/	-re-
!	!	!LO:TX:t=P:problem:kreska pseudotaktowa	!	!	!
2.BB-/	-lis	1G/	tol-	2.d/	-re-
!LO:TX:t=P:problem:kreska pseudotaktowa	!	!	!	!	!
4C/	.	.	.	4e/	.
=80-	=80-	=80-	=80-	=80-	=80-
4D\	.	2.F/	.	1f/	-no-
4E\	.	.	.	.	.
1F\	.	.	.	.	.
.	.	4G/	.	.	.
!	!	!	!	!LO:TX:t=P:problem:kreska pseudotaktowa	!
.	.	4A/	.	1c/	-bis
.	.	4B-\	.	.	.
!LO:TX:t=P:problem:kreska pseudotaktowa	!	!	!	!	!
2E\	pec-	1c\	-lis	.	.
=81-	=81-	=81-	=81-	=81-	=81-
2F\	-ca-	.	.	00rf	.
!LO:TX:t=P:problem:kreska pseudotaktowa	!	!LO:TX:t=P:problem:kreska pseudotaktowa	!	!	!
2G\	-ta	2B-\	pec-	.	.
4F\	mun-	2c\	-ca-	.	.
4E\	.	.	.	.	.
1A\	.	2A/	-ta	.	.
=82-	=82-	=82-	=82-	=82-	=82-
.	.	1B-\	mun-	.	.
!LO:SIC:v:t=custos A	!	!	!	!	!
2G\	.	.	.	.	.
!LO:TX:t=P:problem:kreska pseudotaktowa	!	!LO:TX:t=P:problem:kreska pseudotaktowa	!	!	!
!LO:LB:g=original	!	!	!	!	!
1A\	-di	0A\	-di	.	.
=83-	=83-	=83-	=83-	=83-	=83-
2r	.	.	.	1.a\	su-
1F\	Su-	.	.	.	.
.	.	2r	.	.	.
!LO:TX:t=P:problem:kreska pseudotaktowa	!	!	!	!	!
2C/	-ſci-	1c\	su-	2g/	-sci-
=84-	=84-	=84-	=84-	=84-	=84-
!	!	!	!	!LO:TX:t=P:problem:kreska pseudotaktowa	!
1C/	-pe	.	.	1g\	-pe
.	.	2c\	-sci-	.	.
!	!	!LO:SIC:v:t=custos d	!	!	!
1.F\	de-	1c\	-pe	1.a\	de-
=85-	=85-	=85-	=85-	=85-	=85-
!	!	!LO:LB:g=original	!	!	!
.	.	2rc	.	.	.
!LO:TX:t=P:problem:kreska pseudotaktowa	!	!	!	!	!
2D/	-pre-	1d\	de-	2a\	-pre-
2D/	-ca-	.	.	2a\	-ca-
2D/	-ti-	2d\	-pre-	2a\	-ti-
=86-	=86-	=86-	=86-	=86-	=86-
!	!	!	!	!LO:TX:t=P:problem:kreska pseudotaktowa	!
1G\	-o-	2B-\	-ca-	1b-\	-o-
.	.	2B-\	-ti-	.	.
!LO:TX:t=P:problem:kreska pseudotaktowa	!	!LO:TX:t=P:problem:kreska pseudotaktowa	!	!	!
1C/	-nem	1c\	-o-	2g,</	-nem
.	.	.	.	2.cc\	no-
=87-	=87-	=87-	=87-	=87-	=87-
*lig	*	*	*	*	*
!	!	!LO:TX:t=P:problem:rozdzielacz słów:global	!	!	!
1F\	no-	2A,</	-nem	.	.
.	.	.	.	4b-\	.
.	.	2.d\	no-	4a\	.
!	!	!	!	!LO:SIC:v:t=custos a	!
.	.	.	.	4g/	.
!	!	!	!	!LO:LB:g=original	!
1D\	.	.	.	2a\	.
.	.	4c\	.	.	.
.	.	4B-\	.	2.b-\	.
.	.	4A/	.	.	.
*Xlig	*	*	*	*	*
=88-	=88-	=88-	=88-	=88-	=88-
*lig	*	*	*	*	*
1E-X\	.	2G/	.	.	.
.	.	.	.	4a\	.
.	.	2.c\	.	4g/	.
!	!	!	!	!LO:TX:t=P:problem:kreska pseudotaktowa	!
.	.	.	.	4f/	.
1C/	.	.	.	2g/	.
.	.	4B-\	.	.	.
*	*	*	*	*col	*
.	.	4A/	.	2.a\	.
.	.	4G/	.	.	.
*Xlig	*	*	*	*	*
=89-	=89-	=89-	=89-	=89-	=89-
1D\	.	1F/	.	.	.
.	.	.	.	4g/	.
*	*	*	*	*Xcol	*
.	.	.	.	1f/	.
!LO:TX:t=P:problem:kreska pseudotaktowa	!	!	!	!	!
1C/	-ſtram	1G/	.	.	.
.	.	.	.	2e/	.
=90-	=90-	=90-	=90-	=90-	=90-
!	!	!LO:TX:t=P:problem:kreska pseudotaktowa	!	!LO:TX:t=P:problem:kreska pseudotaktowa	!
2.F\	no-	0F/	-stram	1f/	-stram
4Eny\	.	.	.	.	.
1D\	.	.	.	2re	.
.	.	.	.	2f/	Qui
=91-	=91-	=91-	=91-	=91-	=91-
1C/	.	00r	.	1g\	se-
!LO:TX:t=P:problem:kreska pseudotaktowa	!	!	!	!	!
1FF/	-ſtram	.	.	2a\	-des
!	!	!	!	!LO:TX:t=P:problem:kreska pseudotaktowa	!
.	.	.	.	2a\	ad
=92-	=92-	=92-	=92-	=92-	=92-
00r	.	.	.	2.cc\	dex-
.	.	.	.	4b-\	-te-
.	.	.	.	2a\	-ram
.	.	.	.	2.b-\	Pa-
=93-	=93-	=93-	=93-	=93-	=93-
.	.	0rA	.	.	.
.	.	.	.	4a\	.
.	.	.	.	4g/	.
!	!	!	!	!LO:TX:t=P:problem:kreska pseudotaktowa	!
.	.	.	.	4f/	.
.	.	.	.	4e/	.
.	.	.	.	4d/	.
!	!	!	!	!LO:SIC:v:t=custos f	!
.	.	.	.	2e/	.
=94-	=94-	=94-	=94-	=94-	=94-
!LO:TX:t=P:problem:kreska pseudotaktowa	!	!	!	!	!
!LO:SIC:v:t=custos F	!	!	!	!LO:LB:g=original	!
0rD	.	1F/	mi-	2.f/	.
.	.	.	.	4e/	.
.	.	1G/	-ſe-	1d/	.
=95-	=95-	=95-	=95-	=95-	=95-
!LO:LB:g=original	!	!	!	!LO:TX:t=P:problem:kreska pseudotaktowa	!
2r	.	2.A/	-re-	1c/	-tris
1F\	Mi-	.	.	.	.
.	.	4B-\	.	.	.
!	!	!LO:TX:t=P:problem:kreska pseudotaktowa	!	!	!
!	!	!LO:SIC:v:t=custos B-	!	!	!
.	.	1c\	.	0rf	.
!LO:TX:t=P:problem:kreska pseudotaktowa	!	!	!	!	!
2E\	-ſe-	.	.	.	.
=96-	=96-	=96-	=96-	=96-	=96-
!	!	!LO:LB:g=original	!	!	!
2.D/	-re-	2B-\	-re	.	.
.	.	2.A/	no-	.	.
8C/L	.	.	.	.	.
8BB-/J	.	.	.	.	.
2AA/	.	.	.	1f/	mi-
.	.	4G/	.	.	.
2BB-/	-re	1F/	.	.	.
=97-	=97-	=97-	=97-	=97-	=97-
1GG/	no-	.	.	1g\	-ſe-
.	.	2E/	.	.	.
!LO:TX:t=P:problem:kreska pseudotaktowa	!	!	!	!	!
1FF/	-bis.	2.F/	.	2.a\	-re-
.	.	4G/	.	4b-\	.
=98-	=98-	=98-	=98-	=98-	=98-
!LO:TX:t=P:problem:kreska pseudotaktowa	!	!	!	!LO:TX:t=P:problem:kreska pseudotaktowa	!
0rD	.	1A\	.	1cc\	.
!	!	!LO:TX:t=P:problem:kreska pseudotaktowa	!	!	!
.	.	1D/	-bis	2b-\	re
.	.	.	.	2.a\	no-
=99-	=99-	=99-	=99-	=99-	=99-
1.D\	Quo-	1rF	.	.	.
.	.	.	.	4g/	.
.	.	.	.	4f/	.
.	.	.	.	4e/	.
.	.	2rF	.	1f/	.
2D/	-ni-	1A\	quo-	.	.
=100-	=100-	=100-	=100-	=100-	=100-
!	!	!	!	!LO:TX:t=P:problem:kreska pseudotaktowa	!
2C/	-am	.	.	1e/	-bis
!LO:TX:t=P:problem:kreska pseudotaktowa	!	!	!	!	!
2AA/	tu	2A/	-ni-	.	.
2BB-/	So-	2G/	-am	0rf	.
!	!	!LO:TX:t=P:problem:kreska pseudotaktowa	!	!	!
2C/	.	2E/	tu	.	.
=101-	=101-	=101-	=101-	=101-	=101-
2.D/	.	2F/	so-	.	.
.	.	2F/	-lus	.	.
4C/	-lus	.	.	.	.
1BB-/	San-	1G/	san-	1rg	.
=102-	=102-	=102-	=102-	=102-	=102-
!LO:TX:t=P:problem:kreska pseudotaktowa	!	!LO:TX:t=P:problem:kreska pseudotaktowa	!	!	!
1AA/	-ctus	1A\	-ctus	1a\	Tu
!	!	!LO:TX:a:t=2	!	!	!
1rD	.	0r	.	2g/	so-
.	.	.	.	2f/	-lus
=103-	=103-	=103-	=103-	=103-	=103-
1G\	tu	.	.	2g/	Do-
.	.	.	.	2g/	-mi-
!	!	!	!	!LO:TX:t=P:problem:kreska pseudotaktowa	!
2F\	So-	1d\	tu	1a\	-nus
!LO:SIC:v:t=custos E	!	!	!	!	!
2D/	-lus	.	.	.	.
=104-	=104-	=104-	=104-	=104-	=104-
!LO:LB:g=original	!	!	!	!LO:LB:g=original	!
1.E-X\	Do-	2c\	so-	0r	.
.	.	2B-\	-lus	.	.
.	.	2c\	Do-	.	.
!	!	!LO:TX:t=P:problem:kreska pseudotaktowa	!	!	!
2E-\	-mi-	2c\	-mi-	.	.
=105-	=105-	=105-	=105-	=105-	=105-
!LO:TX:t=P:problem:kreska pseudotaktowa	!	!LO:SIC:v:t=custos d	!	!	!
0D\	-nus	2d\	-nus	1r	.
!	!	!LO:LB:g=original	!	!	!
.	.	2d\	tu	.	.
.	.	1d\	so-	2r	.
.	.	.	.	2a\	Tu
=106-	=106-	=106-	=106-	=106-	=106-
!LO:TX:t=P:problem:kreska pseudotaktowa	!	!	!	!	!
00r	.	2c\	-lus	1a\	so-
.	.	2A/	al-	.	.
.	.	1.B-\	-tiſ-	2g/	-lus
!	!	!	!	!LO:TX:t=P:problem:kreska pseudotaktowa	!
.	.	.	.	2f/	al-
=107-	=107-	=107-	=107-	=107-	=107-
.	.	.	.	2g/	-tiſ-
.	.	2B-\	-si-	2g/	-si-
!	!	!LO:TX:t=P:problem:kreska pseudotaktowa	!	!LO:TX:t=P:problem:kreska pseudotaktowa	!
.	.	1A\	-mus	1a\	-mus
=108-	=108-	=108-	=108-	=108-	=108-
0F\	Je-	0c\	Je-	0a\	Je-
=109-	=109-	=109-	=109-	=109-	=109-
!	!	!LO:TX:t=P:problem:kreska pseudotaktowa	!	!	!
1G\	-su	1B-\,<	-su	1g\	-su
1E-X\	Chri-	1B-\	Chri-	1g\	Chri-
=110-	=110-	=110-	=110-	=110-	=110-
!LO:TX:t=P:problem:kreska pseudotaktowa	!	!	!	!LO:TX:t=P:problem:kreska pseudotaktowa	!
0F\	-ſte	2A,</	-ſte	0f/	-ſte
.	.	2F/	Cum	.	.
.	.	2A/	san-	.	.
.	.	2A/	-cto	.	.
=111-	=111-	=111-	=111-	=111-	=111-
0r	.	2B-\	spi-	2re	.
!	!	!LO:TX:t=P:problem:kreska pseudotaktowa	!	!	!
.	.	2B-\	-ri-	2f/	Cum
.	.	2A/	-tu	2a\	san-
.	.	2D/	cum	2a\	-cto
=112-	=112-	=112-	=112-	=112-	=112-
1r	.	2G/	san-	2b-\	spi-
.	.	2G/	-cto	2b-\	-ri-
2r	.	4F/	spi-	2a\	-tu
.	.	4G/	.	.	.
!LO:TX:t=P:problem:kreska pseudotaktowa	!	!	!	!	!
2F\	Cum	4A/	.	2.cc\	spi-
!	!	!LO:SIC:v:t=custos c	!	!	!
.	.	4B-\	.	.	.
=113-	=113-	=113-	=113-	=113-	=113-
*	*	*lig	*	*	*
!	!	!LO:LB:g=original	!	!	!
2A\	San-	1c\	.	.	.
.	.	.	.	4b-\	.
2A\	-cto	.	.	1a\	.
2B-\	San-	1d\	.	.	.
2B-\	-cto	.	.	2g/	-ri-
!LO:TX:t=P:problem:kreska pseudotaktowa	!	!	!	!LO:SIC:v:t=custos A	!
*	*	*Xlig	*	*	*
=114-	=114-	=114-	=114-	=114-	=114-
!	!	!	!	!LO:LB:g=original	!
2.A\	Spi-	2.c\	.	1a\	-tu
4G\	.	4B-\	.	.	.
2F\	.	2A/	.	0r	.
4Eny\	.	4G/	.	.	.
!LO:TX:t=P:problem:kreska pseudotaktowa	!	!	!	!	!
4D\	.	4F/	.	.	.
=115-	=115-	=115-	=115-	=115-	=115-
*lig	*	*	*	*	*
1C/	-ri-	2G/	.	.	.
.	.	1c\	.	.	.
!LO:SIC:v:t=custos C	!	!	!	!	!
1D\	.	.	.	1r	.
.	.	2B-\	-ri-	.	.
*Xlig	*	*	*	*	*
=116-	=116-	=116-	=116-	=116-	=116-
*M3/1	*	*M3/1	*	*M3/1	*
!LO:TX:t=P:problem:kreska pseudotaktowa	!	!LO:TX:t=P:problem:kreska pseudotaktowa	!	!	!
!LO:LB:g=original	!	!	!	!	!
0.C/	tu	0.c\	-tu	1r	.
.	.	.	.	1.g\	In
!	!	!	!	!LO:TX:t=P:problem:kreska pseudotaktowa	!
.	.	.	.	2f/	.
=117-	=117-	=117-	=117-	=117-	=117-
!LO:N:vis=0	!	!LO:N:vis=0	!	!	!
0.rD	.	0.r	.	1g\	.
.	.	.	.	1a\	glo-
!	!	!	!	!LO:TX:t=P:problem:kreska pseudotaktowa	!
.	.	.	.	1f/	-ri-
=118-	=118-	=118-	=118-	=118-	=118-
1rBB	.	1.G/	In	0.g\	-a
1.C/	In	.	.	.	.
.	.	2F/	.	.	.
!	!	!LO:TX:t=P:problem:kreska pseudotaktowa	!	!	!
.	.	1G/	glo-	.	.
!LO:TX:t=P:problem:kreska pseudotaktowa	!	!	!	!	!
2BB-/	.	.	.	.	.
=119-	=119-	=119-	=119-	=119-	=119-
!	!	!	!	!LO:N:vis=0	!
1C/	.	1A\	-ri-	0.r	.
1D\	glo-	1F/	-a	.	.
!LO:TX:t=P:problem:kreska pseudotaktowa	!	!	!	!	!
1BB-/	-ri-	1.G/	.	.	.
=120-	=120-	=120-	=120-	=120-	=120-
0C/	-a	.	.	1.g\	in
.	.	2F/	.	.	.
.	.	2E/	.	.	.
.	.	2D/	.	2f/	.
!	!	!	!	!LO:TX:t=P:problem:kreska pseudotaktowa	!
1rD	.	1E/	.	1g\	.
=121-	=121-	=121-	=121-	=121-	=121-
!	!	!LO:TX:a:t=2	!	!	!
!	!	!LO:TX:t=P:problem:kreska pseudotaktowa	!	!	!
!	!	!LO:SIC:v:t=custos G	!	!	!
!	!	!LO:N:vis=00	!	!	!
1F\	De-	00.r	.	1a\	glo-
1D\	-i	.	.	1f/	-ri-
!LO:TX:t=P:problem:kreska pseudotaktowa	!	!	!	!LO:TX:t=P:problem:kreska pseudotaktowa	!
1G\	Pa-	.	.	1g\	-a
=122-	=122-	=122-	=122-	=122-	=122-
1C/	-tris	.	.	1e/	De-
1D\	A-	.	.	1f/	-i
!	!	!	!	!LO:TX:t=P:problem:kreska pseudotaktowa:między nutą a kropką	!
1G\	.	.	.	1.g\	Pa-
=123-	=123-	=123-	=123-	=123-	=123-
!LO:TX:t=P:problem:kreska pseudotaktowa	!	!LO:PB:g=original	!	!	!
0.C/	-men.	1.G/	In	.	.
.	.	.	.	2f/	.
.	.	.	.	1e/	.
.	.	2F/	.	.	.
!	!	!LO:TX:t=P:problem:kreska pseudotaktowa	!	!LO:SIC:v:t=custos c	!
.	.	1G/	.	1d/	.
=124-	=124-	=124-	=124-	=124-	=124-
!LO:SIC:v:t=custos C	!	!	!	!LO:PB:g=original	!
!LO:N:vis=0	!	!	!	!	!
0.rD	.	1A\	glo-	1c/	-tris
!	!	!	!	!LO:TX:t=P:problem:kreska pseudotaktowa:między nutą a kropką	!
.	.	1F/	-ri-	0.d/	A-
.	.	1G/	-a	.	.
=125-	=125-	=125-	=125-	=125-	=125-
!LO:LB:g=original	!	!	!	!	!
1.C/	In	1.E/	De-	.	.
*	*	*	*	*lig	*
.	.	.	.	1d/	.
2BB-/	.	2D/	.	.	.
!LO:TX:t=P:problem:kreska pseudotaktowa	!	!LO:TX:t=P:problem:kreska pseudotaktowa	!	!LO:TX:t=P:problem:kreska pseudotaktowa	!
1C/	.	1E/	.	1g\	.
*	*	*	*	*Xlig	*
=126-	=126-	=126-	=126-	=126-	=126-
1D\	glo-	1F/	-i	0f/	.
1BB-/	-ri-	0G/	pa-	.	.
!LO:TX:t=P:problem:kreska pseudotaktowa	!	!	!	!	!
1C/	-a	.	.	1e/	.
=127-	=127-	=127-	=127-	=127-	=127-
!	!	!	!	!LO:N:vis=0	!
1AA/	De-	1F/	-tris	0.f/	-men
1FF/	-i	1.A\	A-	.	.
!LO:TX:t=P:problem:kreska pseudotaktowa	!	!	!	!	!
1AA/	Pa-	.	.	.	.
!	!	!LO:TX:t=P:problem:kreska pseudotaktowa	!	!	!
.	.	2G/	.	.	.
=128-	=128-	=128-	=128-	=128-	=128-
*lig	*	*	*	*	*
!	!	!	!	!LO:TX:t=P:problem:kreska pseudotaktowa	!
1BB-/	tris	1.F/	.	1rg	.
1GG/	.	.	.	1rg	.
.	.	4E/	.	.	.
.	.	4D/	.	.	.
*Xlig	*	*	*	*	*
!LO:TX:t=P:problem:kreska pseudotaktowa	!	!LO:TX:t=P:problem:kreska pseudotaktowa	!	!	!
1C/	A-	1E/	-men	1g\	A-
=129-	=129-	=129-	=129-	=129-	=129-
*	*	*	*ij	*	*
0FF/	-men	1.F/	A-	1a\	.
.	.	.	.	1.cc\	.
.	.	2G/	.	.	.
!LO:TX:t=P:problem:kreska pseudotaktowa:między nutą a kropką	!	!	!	!	!
1.F\	A-	2A/	.	.	.
.	.	2B-\	.	2b-\	.
=130-	=130-	=130-	=130-	=130-	=130-
!	!	!LO:LB:g=original	!	!	!
.	.	1c\	-men	2a\	.
2E\	.	.	.	2g/	.
2D/	.	1.d\	A-	2f/	.
2C/	.	.	.	2e/	.
2BB-/	.	.	.	0d/	-men
!LO:SIC:v:t=custos GG	!	!LO:TX:t=P:problem:kreska pseudotaktowa	!	!	!
2AA/	.	2c\	.	.	.
=131-	=131-	=131-	=131-	=131-	=131-
*col	*	*	*	*	*ij
!LO:LB:g=original	!	!	!	!	!
0GG/	.	2B-\	.	.	.
.	.	2A/	.	.	.
.	.	1.B-\	.	1.g\	A-
0D\	.	.	.	.	.
!	!	!LO:TX:t=P:problem:kreska pseudotaktowa	!	!	!
.	.	2A/	.	2f/	.
=132-	=132-	=132-	=132-	=132-	=132-
.	.	1F/	.	0f/	.
0C/	.	0G/	.	.	.
.	.	.	.	1e/	.
*Xcol	*	*	*	*	*
=133-	=133-	=133-	=133-	=133-	=133-
0.FF/	-[men]	0.F/	men	0.f/;<	-men
*	*	*	*Xij	*	*Xij
==	==	==	==	==	==
*-	*-	*-	*-	*-	*-
!!!system-decoration: [(s1,s2,s3)]
!!!RDF**kern: > = above
!!!RDF**kern: < = below
!!!EED: Andrzej Borzym
!!!EST: 2021-03-24
!!!AIN: 1 empty 1 tenor 1 vox
!!!ENC: Andrzej Kubiczek
!!!END: 2021-03-09
